src/assets/icons/heart-filled.svg

<svg height="18" viewBox="0 0 18 18" width="18" xmlns="http://www.w3.org/2000/svg"><path d="m171.428712 839.053345-7.160381 7.832003c-.068435.075246-.16569.114652-.266529.114652-.100861 0-.198095-.039406-.26653-.114652l-7.16038-7.832003c-2.099856-2.293003-2.099856-6.022691 0-8.315694 1.022898-1.121419 2.387995-1.737651 3.843114-1.737651 1.332671 0 2.593301.515925 3.583796 1.465354.990495-.949429 2.24752-1.465354 3.580191-1.465354 1.455119 0 2.823799.616232 3.850325 1.737651 2.092645 2.293003 2.089039 6.022691-.003606 8.315694z" fill="#f00" transform="translate(-155 -829)"/></svg>

<?xml version="1.0" encoding="UTF-8"?>
<svg width="18px" height="18px" viewBox="0 0 18 18" version="1.1" xmlns="http://www.w3.org/2000/svg" xmlns:xlink="http://www.w3.org/1999/xlink">
    <title>Path</title>
    <g id="Page-1" stroke="none" stroke-width="1" fill="none" fill-rule="evenodd">
        <g id="Guide" transform="translate(-155.000000, -829.000000)" fill="#FF0000" fill-rule="nonzero">
            <path d="M171.428712,839.053345 L164.268331,846.885348 C164.199896,846.960594 164.102641,847 164.001802,847 C163.900941,847 163.803707,846.960594 163.735272,846.885348 L156.574892,839.053345 C154.475036,836.760342 154.475036,833.030654 156.574892,830.737651 C157.59779,829.616232 158.962887,829 160.418006,829 C161.750677,829 163.011307,829.515925 164.001802,830.465354 C164.992297,829.515925 166.249322,829 167.581993,829 C169.037112,829 170.405792,829.616232 171.432318,830.737651 C173.524963,833.030654 173.521357,836.760342 171.428712,839.053345 Z" id="Path"></path>
        </g>
    </g>
</svg>
